source/img/logo/logo-tablet.svg

<svg width="110" height="22" viewBox="0 0 110 22" fill="none" xmlns="http://www.w3.org/2000/svg">
<path d="M95.6006 0.308609H98.6564L102.188 14.9459L105.708 0.308609H108.407L103.484 21.7061H100.88L95.6006 0.308609ZM94.3639 0.308609H97.2771L97.729 14.4168V21.7061H94.3639V0.308609ZM107.075 0.308609H110V21.7061H106.647V14.4168L107.075 0.308609Z" fill="white"/>
<path d="M83.7099 0.308609L86.3496 9.94921L88.9656 0.308609H92.7587L88.0975 13.9318V21.7061H84.5898V13.9318L79.9287 0.308609H83.7099Z" fill="white"/>
<path d="M79.4848 10.4636V19.2812C79.239 19.6045 78.8783 19.9817 78.4027 20.4128C77.935 20.8341 77.3207 21.2064 76.5597 21.5297C75.8066 21.8432 74.8871 22 73.8011 22C72.8419 22 71.9699 21.8138 71.1851 21.4415C70.4083 21.0692 69.7384 20.5059 69.1756 19.7515C68.6207 18.9873 68.1966 18.0369 67.9033 16.9005C67.61 15.7542 67.4634 14.3972 67.4634 12.8296V9.18503C67.4634 7.63705 67.6021 6.28991 67.8795 5.14362C68.1649 3.98753 68.5771 3.02739 69.1162 2.26319C69.6552 1.499 70.2973 0.93075 71.0424 0.55845C71.7955 0.18615 72.6437 0 73.587 0C74.8871 0 75.9533 0.269428 76.7856 0.808283C77.6259 1.34714 78.26 2.14562 78.6881 3.20374C79.1241 4.26185 79.3857 5.56 79.4729 7.09819H76.1078C76.0524 6.19683 75.9295 5.49142 75.7392 4.98196C75.5569 4.4725 75.2993 4.10999 74.9663 3.89445C74.6334 3.66911 74.2014 3.55644 73.6703 3.55644C73.2105 3.55644 72.8102 3.65932 72.4693 3.86506C72.1285 4.06101 71.8431 4.38432 71.6132 4.835C71.3833 5.28568 71.2129 5.86372 71.1019 6.56913C70.9909 7.27454 70.9354 8.13671 70.9354 9.15564V12.8296C70.9354 13.8388 70.9988 14.7009 71.1257 15.4162C71.2525 16.1314 71.4388 16.7143 71.6845 17.165C71.9382 17.6157 72.2553 17.9439 72.6358 18.1496C73.0242 18.3456 73.48 18.4435 74.0032 18.4435C74.4233 18.4435 74.7602 18.3897 75.0139 18.2819C75.2676 18.1741 75.4697 18.0614 75.6203 17.9439C75.7789 17.8165 75.9097 17.7185 76.0127 17.65V13.7114H73.5276V10.4636H79.4848Z" fill="white"/>
<path d="M53.4007 0.308609H58.9536C60.1109 0.308609 61.0978 0.553543 61.9143 1.04341C62.7308 1.53328 63.3571 2.25828 63.793 3.21843C64.229 4.17857 64.447 5.36405 64.447 6.77487C64.447 7.93096 64.3202 8.92049 64.0665 9.74347C63.8129 10.5567 63.4522 11.2376 62.9845 11.7862C62.5168 12.3251 61.9579 12.7562 61.3079 13.0795L60.2496 13.8584H55.7431L55.7312 10.2872H58.8584C59.3341 10.2872 59.7265 10.1599 60.0356 9.90513C60.3527 9.6406 60.5865 9.2732 60.7372 8.80292C60.8957 8.32285 60.975 7.7644 60.975 7.12757C60.975 6.45156 60.9036 5.87351 60.7609 5.39344C60.6262 4.90357 60.4082 4.53127 60.107 4.27654C59.8137 4.01201 59.4292 3.87975 58.9536 3.87975H56.8846V21.7061H53.4007V0.308609ZM61.2603 21.7061L58.0856 12.1683L61.736 12.1536L64.9821 21.5003V21.7061H61.2603Z" fill="white"/>
<path d="M50.5031 18.1496V21.7061H42.9764V18.1496H50.5031ZM44.0584 0.308609V21.7061H40.5745V0.308609H44.0584ZM49.4924 8.97928V12.4328H42.9764V8.97928H49.4924ZM50.4794 0.308609V3.87975H42.9764V0.308609H50.4794Z" fill="white"/>
<path d="M33.4839 14.167H29.9405V10.5958H33.4839C33.9754 10.5958 34.3757 10.4587 34.6848 10.1844C35.0019 9.91003 35.2318 9.53283 35.3745 9.05276C35.5172 8.56289 35.5885 8.01424 35.5885 7.4068C35.5885 6.78957 35.5132 6.21642 35.3626 5.68736C35.2199 5.14851 34.994 4.71252 34.6848 4.37941C34.3836 4.0463 33.9833 3.87975 33.4839 3.87975H31.0582V21.7061H27.5861V0.308609H33.4839C34.6492 0.308609 35.6519 0.612327 36.4922 1.21976C37.3325 1.8272 37.9746 2.66488 38.4185 3.73279C38.8703 4.7909 39.0962 6.00578 39.0962 7.37741C39.0962 8.75884 38.8703 9.95901 38.4185 10.9779C37.9746 11.9871 37.3325 12.7709 36.4922 13.3293C35.6519 13.8878 34.6492 14.167 33.4839 14.167Z" fill="white"/>
<path d="M21.4507 0.308609H24.9227V15.0047C24.9227 16.6506 24.677 17.9928 24.1855 19.0314C23.702 20.0601 23.0321 20.8145 22.176 21.2946C21.3199 21.7648 20.3409 22 19.239 22C18.1292 22 17.1423 21.7648 16.2783 21.2946C15.4142 20.8145 14.7404 20.0601 14.2569 19.0314C13.7812 17.9928 13.5434 16.6506 13.5434 15.0047V0.308609H17.0155V15.0047C17.0155 15.9354 17.0987 16.6506 17.2652 17.1503C17.4396 17.6499 17.6893 17.9928 18.0143 18.179C18.3472 18.3554 18.7555 18.4435 19.239 18.4435C19.7305 18.4435 20.1348 18.3554 20.4519 18.179C20.7769 17.9928 21.0226 17.6499 21.1891 17.1503C21.3635 16.6506 21.4507 15.9354 21.4507 15.0047V0.308609Z" fill="white"/>
<path d="M7.8478 16.0775C7.8478 15.6954 7.82005 15.3476 7.76456 15.0341C7.70907 14.7206 7.59017 14.4315 7.40784 14.167C7.23345 13.9025 6.97582 13.638 6.63495 13.3734C6.30202 13.1089 5.86603 12.8346 5.32699 12.5504C4.6849 12.2173 4.06262 11.8646 3.46016 11.4923C2.85771 11.1102 2.3147 10.6693 1.83115 10.1697C1.3476 9.67002 0.963138 9.08218 0.677764 8.40616C0.400317 7.72034 0.261593 6.91696 0.261593 5.99601C0.261593 5.09465 0.39239 4.27657 0.653983 3.54177C0.923503 2.80697 1.304 2.17993 1.79548 1.66067C2.28696 1.13162 2.86167 0.725026 3.51962 0.440903C4.18549 0.156779 4.92667 0.0147172 5.74316 0.0147172C6.85295 0.0147172 7.81212 0.298841 8.62068 0.867088C9.43717 1.43533 10.0674 2.21423 10.5113 3.20376C10.9631 4.19329 11.1891 5.32979 11.1891 6.61324H7.717C7.717 6.00581 7.64566 5.47185 7.50297 5.01137C7.36821 4.5411 7.15021 4.1737 6.84899 3.90917C6.54776 3.64464 6.15933 3.51238 5.68371 3.51238C5.23979 3.51238 4.87118 3.62505 4.57788 3.85038C4.29251 4.06593 4.07848 4.36475 3.93579 4.74684C3.80103 5.11914 3.73365 5.54043 3.73365 6.0107C3.73365 6.36341 3.80103 6.68182 3.93579 6.96595C4.07848 7.24027 4.27269 7.49011 4.51843 7.71545C4.76417 7.93099 5.0535 8.14163 5.38644 8.34737C5.72731 8.55312 6.09988 8.75396 6.50416 8.94991C7.28894 9.33201 7.98256 9.7533 8.58501 10.2138C9.18747 10.6645 9.69084 11.1739 10.0951 11.7422C10.4994 12.3006 10.8046 12.9325 11.0107 13.638C11.2168 14.3434 11.3199 15.1467 11.3199 16.0481C11.3199 16.9397 11.193 17.7528 10.9394 18.4876C10.6936 19.2127 10.3329 19.8397 9.85731 20.3687C9.38168 20.888 8.80697 21.2897 8.13317 21.5738C7.4673 21.8579 6.72215 22 5.89774 22C5.0971 22 4.34007 21.8628 3.62663 21.5885C2.9132 21.3044 2.283 20.8782 1.73603 20.31C1.19699 19.7319 0.772889 19.002 0.463733 18.1202C0.154578 17.2287 0 16.1755 0 14.9606H3.48395C3.48395 15.6072 3.53547 16.1608 3.63852 16.6212C3.74158 17.0719 3.90012 17.4344 4.11415 17.7088C4.32818 17.9733 4.58977 18.1741 4.89893 18.3113C5.21601 18.4387 5.57669 18.5023 5.98097 18.5023C6.44074 18.5023 6.80539 18.3946 7.07491 18.179C7.35235 17.9635 7.55053 17.6745 7.66944 17.312C7.78834 16.9495 7.8478 16.538 7.8478 16.0775Z" fill="white"/>
</svg>

<svg viewBox="0 0 110 22" fill="none" xmlns="http://www.w3.org/2000/svg"><path d="M95.6.3h3.06l3.53 14.65 3.52-14.64h2.7l-4.93 21.4h-2.6l-5.28-21.4Zm-1.24 0h2.92l.45 14.12v7.29h-3.37v-21.4Zm12.72 0h2.92v21.4h-3.35v-7.28l.42-14.11Zm-23.37 0 2.64 9.65 2.62-9.64h3.79l-4.66 13.62v7.78h-3.51v-7.78l-4.66-13.62h3.78Zm-4.23 10.16v8.82c-.24.32-.6.7-1.08 1.13a6.58 6.58 0 0 1-4.6 1.59 5.42 5.42 0 0 1-4.63-2.25 8.37 8.37 0 0 1-1.27-2.85c-.29-1.15-.44-2.5-.44-4.07v-3.64c0-1.55.14-2.9.42-4.05.28-1.15.7-2.11 1.24-2.88a5.2 5.2 0 0 1 1.92-1.7c.76-.37 1.6-.56 2.55-.56 1.3 0 2.36.27 3.2.8a4.95 4.95 0 0 1 1.9 2.4c.43 1.06.7 2.36.78 3.9h-3.36a7.6 7.6 0 0 0-.37-2.12c-.18-.5-.44-.87-.77-1.09a2.27 2.27 0 0 0-1.3-.33c-.46 0-.86.1-1.2.3-.34.2-.63.52-.86.98-.23.45-.4 1.02-.5 1.73a17 17 0 0 0-.17 2.59v3.67c0 1 .06 1.87.19 2.59.12.71.3 1.3.55 1.74.26.46.58.78.96.99a3 3 0 0 0 1.36.3 2.55 2.55 0 0 0 1.62-.51l.4-.29v-3.94h-2.5v-3.25h5.96Zm-26.08-10.16h5.55c1.16 0 2.15.25 2.96.74a4.73 4.73 0 0 1 1.88 2.18c.44.96.66 2.14.66 3.55 0 1.16-.13 2.15-.38 2.97a5.35 5.35 0 0 1-2.76 3.34l-1.06.78h-4.5l-.02-3.57h3.13c.47 0 .87-.13 1.18-.38.31-.27.55-.64.7-1.1a6.71 6.71 0 0 0 .03-3.42 2.17 2.17 0 0 0-.66-1.11c-.3-.27-.68-.4-1.16-.4h-2.07v17.83h-3.48v-21.4Zm7.86 21.4-3.17-9.53 3.65-.02 3.24 9.35v.2h-3.72Zm-10.76-3.55v3.56h-7.52v-3.56h7.52Zm-6.44-17.84v21.4h-3.49v-21.4h3.49Zm5.43 8.67v3.45h-6.51v-3.45h6.51Zm.99-8.67v3.57h-7.5v-3.57h7.5Zm-17 13.86h-3.54v-3.57h3.54c.5 0 .9-.14 1.2-.42.32-.27.55-.65.7-1.13a6 6 0 0 0 .2-1.64c0-.62-.07-1.2-.22-1.72a3.02 3.02 0 0 0-.68-1.31c-.3-.33-.7-.5-1.2-.5h-2.42v17.83h-3.47v-21.4h5.9a5 5 0 0 1 3 .91c.84.6 1.48 1.44 1.93 2.51.45 1.06.68 2.28.68 3.65 0 1.38-.23 2.58-.68 3.6a5.3 5.3 0 0 1-1.93 2.35 5.3 5.3 0 0 1-3 .84Zm-12.03-13.87h3.47v14.7c0 1.65-.24 3-.73 4.03a4.86 4.86 0 0 1-2.01 2.26 6 6 0 0 1-2.94.71 6.1 6.1 0 0 1-2.96-.7 4.84 4.84 0 0 1-2.02-2.27 9.73 9.73 0 0 1-.72-4.03v-14.7h3.48v14.7a7 7 0 0 0 .25 2.15c.17.5.42.84.74 1.03.34.18.75.26 1.23.26.5 0 .9-.08 1.21-.26.33-.19.57-.53.74-1.03.17-.5.26-1.21.26-2.15v-14.7Zm-13.6 15.78a6 6 0 0 0-.09-1.05c-.05-.3-.17-.6-.35-.86a3.43 3.43 0 0 0-.78-.8 8.5 8.5 0 0 0-1.3-.82c-.65-.33-1.27-.69-1.87-1.06a8.86 8.86 0 0 1-1.63-1.32 5.69 5.69 0 0 1-1.15-1.76 6.4 6.4 0 0 1-.42-2.41c0-.9.13-1.72.4-2.46a5.4 5.4 0 0 1 2.86-3.1c.67-.28 1.4-.43 2.22-.43 1.11 0 2.07.29 2.88.86a5.53 5.53 0 0 1 1.9 2.33c.44 1 .67 2.13.67 3.41h-3.47c0-.6-.07-1.14-.22-1.6a2.25 2.25 0 0 0-.65-1.1 1.7 1.7 0 0 0-1.17-.4c-.44 0-.8.12-1.1.34-.29.22-.5.51-.64.9-.14.37-.2.79-.2 1.26 0 .35.06.67.2.96.14.27.33.52.58.75.24.21.53.42.87.63.34.2.71.4 1.11.6.79.38 1.48.8 2.09 1.26a6.79 6.79 0 0 1 2.42 3.43 8.6 8.6 0 0 1-.07 4.85 4.87 4.87 0 0 1-2.8 3.09 6.27 6.27 0 0 1-4.5.01 5.35 5.35 0 0 1-3.18-3.47c-.3-.9-.46-1.94-.46-3.16h3.48c0 .65.06 1.2.16 1.66.1.45.26.81.47 1.09a2.22 2.22 0 0 0 1.87.8c.46 0 .83-.12 1.1-.33.27-.22.47-.5.59-.87.12-.36.18-.77.18-1.23Z" fill="#fff"/></svg>
